packages/calcite-ui-icons/icons/community-detection-16.svg

<?xml version="1.0" encoding="UTF-8"?><svg id="icons" xmlns="http://www.w3.org/2000/svg" viewBox="0 0 16 16"><defs><style>.cls-1{fill:none;}</style></defs><path d="M7.5,3c.40356,0,.7688-.16193,1.0387-.42206l1.47974.73987c-.00745.06042-.01843.11981-.01843.18219,0,.15546.03052.30255.07458.44366l-.07507.05634h1.00049v-1h1v1h.9079c.05603-.15717.0921-.32385.0921-.5,0-.82715-.67285-1.5-1.5-1.5-.40356,0-.7688.16193-1.0387.42206l-1.47974-.73987c.00745-.06042.01843-.11981.01843-.18219,0-.82715-.67285-1.5-1.5-1.5s-1.5.67285-1.5,1.5c0,.06238.01099.12177.01843.18219l-1.47974.73987c-.2699-.26013-.63513-.42206-1.0387-.42206-.82715,0-1.5.67285-1.5,1.5s.67285,1.5,1.5,1.5c.30695,0,.59204-.09332.83002-.25214l1.71692,1.28748c.06592-.34845.20258-.67108.39709-.95245l-1.51862-1.13922c.04407-.14111.07458-.28821.07458-.44366,0-.06238-.01099-.12177-.01843-.18219l1.47974-.73987c.2699.26013.63513.42206,1.0387.42206ZM7,1h1v1h-1v-1ZM4,4h-1v-1h1v1ZM3.5,11c-.38556,0-.73401.15027-1,.39014-.26599-.23987-.61444-.39014-1-.39014-.82715,0-1.5.67285-1.5,1.5s.67285,1.5,1.5,1.5c.23767,0,.45953-.06061.65942-.15942-.09882.19989-.15942.42175-.15942.65942,0,.82715.67285,1.5,1.5,1.5s1.5-.67285,1.5-1.5c0-.38556-.15027-.73401-.39014-1,.12982-.14392.22601-.31494.2937-.5h1.09644v-1h-1.0921c-.05188-.14172-.12164-.27533-.21082-.39429l1.30292-1.95435v-1.80273l-2.13446,3.20166c-.11768-.02972-.23877-.05029-.36554-.05029ZM2,13h-1v-1h1v1ZM4,15h-1v-1h1v1ZM9,11h1v1h-1v-1ZM9,13h1v1h-1v-1ZM11,11h1v1h-1v-1ZM13,11h1v3h-1v-3ZM11,13h1v1h-1v-1ZM14.5,5h-6c-.82715,0-1.5.67285-1.5,1.5v8c0,.82715.67285,1.5,1.5,1.5h6c.82715,0,1.5-.67285,1.5-1.5V6.5c0-.82715-.67285-1.5-1.5-1.5ZM15,14.5c0,.27539-.22461.5-.5.5h-6c-.27539,0-.5-.22461-.5-.5V6.5c0-.27539.22461-.5.5-.5h6c.27539,0,.5.22461.5.5v8ZM9,10h5v-3h-5v3ZM10,8h3v1h-3v-1Z"/><rect class="cls-1" width="16" height="16"/></svg>

<svg xmlns="http://www.w3.org/2000/svg" viewBox="0 0 16 16"><path d="M7.5 3c.404 0 .769-.162 1.039-.422l1.48.74c-.008.06-.019.12-.019.182 0 .155.03.303.075.444L10 4h1V3h1v1h.908c.056-.157.092-.324.092-.5 0-.827-.673-1.5-1.5-1.5-.404 0-.769.162-1.039.422l-1.48-.74C8.99 1.622 9 1.562 9 1.5 9 .673 8.327 0 7.5 0S6 .673 6 1.5c0 .062.011.122.018.182l-1.48.74A1.493 1.493 0 0 0 3.5 2C2.673 2 2 2.673 2 3.5S2.673 5 3.5 5c.307 0 .592-.093.83-.252l1.717 1.287c.066-.348.203-.67.397-.952l-1.519-1.14A1.48 1.48 0 0 0 5 3.5c0-.062-.011-.122-.018-.182l1.48-.74c.27.26.634.422 1.038.422zM7 1h1v1H7V1zM4 4H3V3h1v1zm-.5 7c-.386 0-.734.15-1 .39a1.489 1.489 0 0 0-1-.39c-.827 0-1.5.673-1.5 1.5S.673 14 1.5 14c.238 0 .46-.06.66-.16-.1.2-.16.422-.16.66 0 .827.673 1.5 1.5 1.5S5 15.327 5 14.5c0-.386-.15-.734-.39-1a1.52 1.52 0 0 0 .294-.5H6v-1H4.908a1.536 1.536 0 0 0-.21-.394L6 9.65v-1.8l-2.134 3.2A1.485 1.485 0 0 0 3.5 11zM2 13H1v-1h1v1zm2 2H3v-1h1v1zm5-4h1v1H9v-1zm0 2h1v1H9v-1zm2-2h1v1h-1v-1zm2 0h1v3h-1v-3zm-2 2h1v1h-1v-1zm3.5-8h-6C7.673 5 7 5.673 7 6.5v8c0 .827.673 1.5 1.5 1.5h6c.827 0 1.5-.673 1.5-1.5v-8c0-.827-.673-1.5-1.5-1.5zm.5 9.5c0 .275-.225.5-.5.5h-6a.501.501 0 0 1-.5-.5v-8c0-.275.225-.5.5-.5h6c.275 0 .5.225.5.5v8zM9 10h5V7H9v3zm1-2h3v1h-3V8z"/><path fill="none" d="M0 0h16v16H0z"/></svg>
